X: 144
T: I Lost My Love
T: Jig, A Dorian
L: 1/8
M: 6/8
K: A Dorian
|: E| ABA AGE| c3 c2d| efe edB| g3 e2a| gec cge| dBG GAB| cBA BGE| A3 A2:| 
|: e| aba age| gag geg| aba age| g3 e2a| gec cge| dBG GAB| cBA BGE| A3 A2:| 
D: Stephanie Wills, Tradition Continued, STEPH 1-94
D: Donald Angus Beaton, A Musical Legacy, DAB4-1985
D: Brenda Stubbert, House Sessions, ACC-49398, 1992
